X: 35135
T: Romanian Fantasy
R: waltz
M: 3/4
K: Bminor
|:e2 f2 g2|f4 e2|f3 ed c|d4 c2|
e4 c2|d4 c2|1 B4 d2|f4 b2:|2 B6-|B6:|
e4 e2|d4c2|ce A4-|A6|
[1e4 c2|d4 e2|f6-|f6:|
[2e4 c2|d4 c2|B6|-B6||
b6-|b6-|b6-|b6|b'6-|b'6-|b'6-|b'6|
|:b2a2b2|c'4a2|a2^g2a2|b4 ^g2|
a2b2a2|^g2f2e2|f6|f6:|
|:e2g2g2|g4f2|g4f2|g4a2|b6|f6|f6|f6:|
e2 f2 g2|f4 e2|f3 ed c|
[1 d4 c2|e4 c2|d4 c2|B4 d2|f4 b2:|
[2d4f2|.b2z4|.f2z4|.B2z4||

